X: 37188
T: Sir Roger De Coverly
R: slip jig
M: 9/8
K: Gmajor
D|:G2G G2e dBG|A2QA ABG FED|G2G G2e def|g2G GAG FED:|
|:dBd ece dBG|[F2A2][AA] ABG FED|dBd ece def|g2G GAG FED:|
|:gag f2e dBG|[F2A2][AA] ABA FED|gag f2e def|g2g gag fed:|

